X:552
L:1/8
M:4/4
K:C
[M:6/8][K:D] f!p! a[Q:1/8=160]"^E dorian" .D | B2 A G3 | B2 A G3 | B2 A G2 A | B2 A BGE | 
"^5" B2 A G3 | B2 A G2 E | DED d2 B | e2 B AF :: A |"^9" B2 e e3 | B2 e e3 | B2 e e2 f | 
 g2 e fdB |1"^13" B2 c d3 | B2 c d3 | B2 c d2 e | f2 e dB :|2"^13a" B2 c d2 =c | B2 A G3 | 
 FEF d2 B | e2 B AFD | !fermata!E6 |]

